nuke/views/this_is_cube.cube
# Alexa conversion LUT, logc2video, itu709. Full in/full out.
# created by alexalutconv (2.09)
LUT_3D_SIZE 32
0.000000 0.000000 0.000000
0.018313 0.000000 0.000133
0.038767 0.000000 0.000281
0.062043 0.000000 0.000452
0.084926 0.000000 0.000652
0.109992 0.000000 0.000926
0.139473 0.000000 0.001331
0.174073 0.000000 0.001931
0.214489 0.000000 0.002820
0.265537 0.000000 0.004264
0.327721 0.000000 0.006565
0.396894 0.000000 0.009903
0.468906 0.000000 0.014350
0.540753 0.000000 0.019875
0.612309 0.000000 0.026556
0.683241 0.000000 0.034432
0.753201 0.000000 0.043509
0.821846 0.000000 0.053762
0.888826 0.000000 0.064714
0.953561 0.000000 0.075332
1.000000 0.000000 0.084462
1.000000 0.000000 0.091761
1.000000 0.000000 0.097447
1.000000 0.000000 0.101730
1.000000 0.000000 0.104824
1.000000 0.000000 0.106941
1.000000 0.000000 0.108294
1.000000 0.000000 0.109096
1.000000 0.000000 0.109560
1.000000 0.000000 0.109899
1.000000 0.000000 0.110326
1.000000 0.000000 0.111052
0.000000 0.015821 0.000000
0.013366 0.015405 0.000000
0.033819 0.014940 0.000000
0.057281 0.014407 0.000000
0.081180 0.013781 0.000000
0.107010 0.012922 0.000000
0.137112 0.011654 0.000000
0.172213 0.009776 0.000426
0.213027 0.006993 0.001316
0.264414 0.002471 0.002759
0.326867 0.000000 0.005060
0.396236 0.000000 0.008399
0.468386 0.000000 0.012846
0.540330 0.000000 0.018370
0.611957 0.000000 0.025051
0.682943 0.000000 0.032927
0.752944 0.000000 0.042005
0.821621 0.000000 0.052256
0.888627 0.000000 0.063333
0.953382 0.000000 0.074096
1.000000 0.000000 0.083331
1.000000 0.000000 0.090707
1.000000 0.000000 0.096445
1.000000 0.000000 0.100765
1.000000 0.000000 0.103884
1.000000 0.000000 0.106018
1.000000 0.000000 0.107382
1.000000 0.000000 0.108190
1.000000 0.000000 0.108657
1.000000 0.000000 0.108999
1.000000 0.000000 0.109429
1.000000 0.000000 0.110161
0.000000 0.033490 0.000000
0.007840 0.033074 0.000000
0.028293 0.032610 0.000000
0.051761 0.032076 0.000000
0.076829 0.031451 0.000000
0.103588 0.030591 0.000000
0.134426 0.029324 0.000000
0.170108 0.027445 0.000000
0.211381 0.024663 0.000000
0.263153 0.020141 0.001079
0.325910 0.012940 0.003379
0.395499 0.002489 0.006718
0.467804 0.000000 0.011165
0.539857 0.000000 0.016690
0.611563 0.000000 0.023370
0.682609 0.000000 0.031246
0.752657 0.000000 0.040324
0.821369 0.000000 0.050576
0.888404 0.000000 0.061765
0.953182 0.000000 0.072697
1.000000 0.000000 0.082054
1.000000 0.000000 0.089516
1.000000 0.000000 0.095315
1.000000 0.000000 0.099678
1.000000 0.000000 0.102826
1.000000 0.000000 0.104979
1.000000 0.000000 0.106355
1.000000 0.000000 0.107170
1.000000 0.000000 0.107641
1.000000 0.000000 0.107986
1.000000 0.000000 0.108420
1.000000 0.000000 0.109158
0.000000 0.053764 0.000000
0.001499 0.053349 0.000000
0.021952 0.052884 0.000000
0.045421 0.052351 0.000000
0.071594 0.051726 0.000000
0.099532 0.050866 0.000000
0.131275 0.049598 0.000000
0.167657 0.047720 0.000000
0.209473 0.044937 0.000000
0.261695 0.040416 0.000000
0.324808 0.033215 0.001451
0.394652 0.022763 0.004790
0.467136 0.008843 0.009237
0.539313 0.000000 0.014762
0.611111 0.000000 0.021442
0.682225 0.000000 0.029318
0.752326 0.000000 0.038396
0.821080 0.000000 0.048648
0.888148 0.000000 0.059933
0.952953 0.000000 0.071066
1.000000 0.000000 0.080570
1.000000 0.000000 0.088133
1.000000 0.000000 0.094004
1.000000 0.000000 0.098417
1.000000 0.000000 0.101600
1.000000 0.000000 0.103776
1.000000 0.000000 0.105165
1.000000 0.000000 0.105989
1.000000 0.000000 0.106465
1.000000 0.000000 0.106813
1.000000 0.000000 0.107251
1.000000 0.000000 0.107997
0.000000 0.075416 0.000000
0.000000 0.075076 0.000000
0.014513 0.074695 0.000000
0.037982 0.074256 0.000000
0.065069 0.073739 0.000000
0.094583 0.073023 0.000000
0.127481 0.071958 0.000000
0.164732 0.070357 0.000000
0.207209 0.067937 0.000000
0.259973 0.063869 0.000000
0.323507 0.056997 0.000000
0.393654 0.046549 0.002527
0.466349 0.032629 0.006975
0.538675 0.015334 0.012500
0.610580 0.000000 0.019180
0.681775 0.000000 0.027056
0.751938 0.000000 0.036133
0.820741 0.000000 0.046385
0.887848 0.000000 0.057735
0.952684 0.000000 0.069118
1.000000 0.000000 0.078800
1.000000 0.000000 0.086488
1.000000 0.000000 0.092447
1.000000 0.000000 0.096920
1.000000 0.000000 0.100144
1.000000 0.000000 0.102347
1.000000 0.000000 0.103754
1.000000 0.000000 0.104588
1.000000 0.000000 0.105070
1.000000 0.000000 0.105422
1.000000 0.000000 0.105865
1.000000 0.000000 0.106619
0.000000 0.099172 0.000000
0.000000 0.098899 0.000000
0.004290 0.098595 0.000000
0.027758 0.098245 0.000000
0.055291 0.097832 0.000000
0.087399 0.097262 0.000000
0.122078 0.096418 0.000000
0.160616 0.095153 0.000000
0.204048 0.093254 0.000000
0.257582 0.090096 0.000000
0.321708 0.084868 0.000000
0.392278 0.076785 0.000000
0.465265 0.064891 0.003865
0.537795 0.048024 0.009390
0.609849 0.027112 0.016071
0.681156 0.002458 0.023947
0.751405 0.000000 0.033024
0.820275 0.000000 0.043276
0.887435 0.000000 0.054639
0.952314 0.000000 0.066374
1.000000 0.000000 0.076317
1.000000 0.000000 0.084185
1.000000 0.000000 0.090269
1.000000 0.000000 0.094829
1.000000 0.000000 0.098113
1.000000 0.000000 0.100355
1.000000 0.000000 0.101786
1.000000 0.000000 0.102634
1.000000 0.000000 0.103124
1.000000 0.000000 0.103483
1.000000 0.000000 0.103933
1.000000 0.000000 0.104700
0.000000 0.127112 0.000000
0.000000 0.126895 0.000000
0.000000 0.126653 0.000000
0.012678 0.126376 0.000000
0.040211 0.126049 0.000000
0.075824 0.125598 0.000000
0.113662 0.124931 0.000000
0.154330 0.123935 0.000000
0.199279 0.122446 0.000000
0.254004 0.119989 0.000000
0.319031 0.115974 0.000000
0.390235 0.109903 0.000000
0.463660 0.101306 0.000000
0.536494 0.089637 0.004804
0.608769 0.073591 0.011484
0.680240 0.050679 0.019360
0.750616 0.022263 0.028438
0.819586 0.000000 0.038690
0.886825 0.000000 0.050053
0.951768 0.000000 0.062175
1.000000 0.000000 0.072538
1.000000 0.000000 0.080692
1.000000 0.000000 0.086974
1.000000 0.000000 0.091672
1.000000 0.000000 0.095049
1.000000 0.000000 0.097352
1.000000 0.000000 0.098821
1.000000 0.000000 0.099691
1.000000 0.000000 0.100193
1.000000 0.000000 0.100561
1.000000 0.000000 0.101023
1.000000 0.000000 0.101809
0.000000 0.159903 0.000000
0.000000 0.159732 0.000000
0.000000 0.159541 0.000000
0.000000 0.159322 0.000000
0.017870 0.159064 0.000000
0.055710 0.158709 0.000000
0.100010 0.158184 0.000000
0.144485 0.157403 0.000000
0.191961 0.156238 0.000000
0.248585 0.154325 0.000000
0.315009 0.151225 0.000000
0.387182 0.146604 0.000000
0.461267 0.140203 0.000000
0.534557 0.131810 0.000000
0.607163 0.120894 0.004690
0.678881 0.106675 0.012566
0.749447 0.087809 0.021644
0.818564 0.061450 0.031896
0.885921 0.026037 0.043258
0.950958 0.000000 0.055582
1.000000 0.000000 0.066657
1.000000 0.000000 0.075289
1.000000 0.000000 0.081898
1.000000 0.000000 0.086820
1.000000 0.000000 0.090348
1.000000 0.000000 0.092750
1.000000 0.000000 0.094280
1.000000 0.000000 0.095186
1.000000 0.000000 0.095709
1.000000 0.000000 0.096091
1.000000 0.000000 0.096571
1.000000 0.000000 0.097389
0.000000 0.198205 0.000000
0.000000 0.198071 0.000000
0.000000 0.197921 0.000000
0.000000 0.197749 0.000000
0.000000 0.197546 0.000000
0.022609 0.197268 0.000000
0.076129 0.196856 0.000000
0.128482 0.196244 0.000000
0.180490 0.195333 0.000000
0.240274 0.193843 0.000000
0.308921 0.191442 0.000000
0.382595 0.187895 0.000000
0.457689 0.183048 0.000000
0.531670 0.176817 0.000000
0.604771 0.168941 0.000000
0.676860 0.159105 0.002499
0.747708 0.146893 0.011577
0.817046 0.131693 0.021829
0.884578 0.112507 0.033192
0.949756 0.087522 0.045515
1.000000 0.056686 0.057206
1.000000 0.025022 0.066700
1.000000 0.000000 0.073885
1.000000 0.000000 0.079196
1.000000 0.000000 0.082983
1.000000 0.000000 0.085554
1.000000 0.000000 0.087189
1.000000 0.000000 0.088155
1.000000 0.000000 0.088713
1.000000 0.000000 0.089120
1.000000 0.000000 0.089632
1.000000 0.000000 0.090503
0.000000 0.246586 0.000000
0.000000 0.246483 0.000000
0.000000 0.246367 0.000000
0.000000 0.246234 0.000000
0.000000 0.246078 0.000000
0.000000 0.245864 0.000000
0.024647 0.245548 0.000000
0.097258 0.245078 0.000000
0.159885 0.244381 0.000000
0.225966 0.243243 0.000000
0.298682 0.241416 0.000000
0.374977 0.238733 0.000000
0.451789 0.235101 0.000000
0.526928 0.230492 0.000000
0.600857 0.224764 0.000000
0.673557 0.217777 0.000000
0.744869 0.209377 0.000000
0.814570 0.199386 0.005474
0.882390 0.187586 0.016836
0.947798 0.173754 0.029160
1.000000 0.159391 0.040856
1.000000 0.145743 0.050972
1.000000 0.133371 0.059279
1.000000 0.122755 0.065431
1.000000 0.114222 0.069771
1.000000 0.107877 0.072695
1.000000 0.103573 0.074546
1.000000 0.100920 0.075637
1.000000 0.099348 0.076266
1.000000 0.098183 0.076724
1.000000 0.096693 0.077301
1.000000 0.094097 0.078280
0.000000 0.305519 0.000000
0.000000 0.305441 0.000000
0.000000 0.305353 0.000000
0.000000 0.305252 0.000000
0.000000 0.305134 0.000000
0.000000 0.304971 0.000000
0.000000 0.304730 0.000000
0.021692 0.304374 0.000000
0.119492 0.303845 0.000000
0.200617 0.302982 0.000000
0.281363 0.301603 0.000000
0.362390 0.299585 0.000000
0.442161 0.296870 0.000000
0.519247 0.293451 0.000000
0.594542 0.289246 0.000000
0.668244 0.284185 0.000000
0.740315 0.278205 0.000000
0.810603 0.271247 0.000000
0.878888 0.263261 0.000000
0.944667 0.254239 0.003114
1.000000 0.245290 0.014811
1.000000 0.237211 0.024926
1.000000 0.230270 0.033286
1.000000 0.224621 0.039869
1.000000 0.220293 0.044778
1.000000 0.217204 0.048213
1.000000 0.215171 0.050442
1.000000 0.213944 0.051775
1.000000 0.213227 0.052550
1.000000 0.212699 0.053119
1.000000 0.212031 0.053836
1.000000 0.210881 0.055064
0.000000 0.371076 0.000000
0.000000 0.371015 0.000000
0.000000 0.370947 0.000000
0.000000 0.370870 0.000000
0.000000 0.370779 0.000000
0.000000 0.370653 0.000000
0.000000 0.370468 0.000000
0.000000 0.370193 0.000000
0.019900 0.369786 0.000000
0.155347 0.369124 0.000000
0.253481 0.368065 0.000000
0.342985 0.366521 0.000000
0.427635 0.364451 0.000000
0.507795 0.361855 0.000000
0.585196 0.358684 0.000000
0.660419 0.354894 0.000000
0.733629 0.350458 0.000000
0.804792 0.345355 0.000000
0.873765 0.339578 0.000000
0.940093 0.333158 0.000000
0.996908 0.326909 0.000000
1.000000 0.321373 0.000000
1.000000 0.316702 0.000000
1.000000 0.312958 0.002065
1.000000 0.310127 0.006974
1.000000 0.308125 0.010409
1.000000 0.306818 0.012638
1.000000 0.306032 0.013970
1.000000 0.305574 0.014746
1.000000 0.305238 0.015314
1.000000 0.304813 0.016031
1.000000 0.304082 0.017260
0.000000 0.439323 0.000000
0.000000 0.439276 0.000000
0.000000 0.439222 0.000000
0.000000 0.439160 0.000000
0.000000 0.439089 0.000000
0.000000 0.438989 0.000000
0.000000 0.438843 0.000000
0.000000 0.438627 0.000000
0.000000 0.438305 0.000000
0.053383 0.437782 0.000000
0.209036 0.436947 0.000000
0.314589 0.435731 0.000000
0.407137 0.434105 0.000000
0.491935 0.432072 0.000000
0.572395 0.429595 0.000000
0.649775 0.426650 0.000000
0.724574 0.423219 0.000000
0.796951 0.419297 0.000000
0.866869 0.414889 0.000000
0.933946 0.410033 0.000000
0.991305 0.405349 0.000000
1.000000 0.401236 0.000000
1.000000 0.397792 0.000000
1.000000 0.395051 0.000000
1.000000 0.392989 0.000000
1.000000 0.391538 0.000000
1.000000 0.390593 0.000000
1.000000 0.390025 0.000000
1.000000 0.389695 0.000000
1.000000 0.389452 0.000000
1.000000 0.389146 0.000000
1.000000 0.388621 0.000000
0.000000 0.507414 0.000000
0.000000 0.507376 0.000000
0.000000 0.507332 0.000000
0.000000 0.507282 0.000000
0.000000 0.507223 0.000000
0.000000 0.507143 0.000000
0.000000 0.507024 0.000000
0.000000 0.506848 0.000000
0.000000 0.506586 0.000000
0.000000 0.506161 0.000000
0.130293 0.505483 0.000000
0.273770 0.504496 0.000000
0.379478 0.503178 0.000000
0.471142 0.501533 0.000000
0.555877 0.499534 0.000000
0.636173 0.497162 0.000000
0.713081 0.494407 0.000000
0.787040 0.491270 0.000000
0.858181 0.487758 0.000000
0.926220 0.483908 0.000000
0.984274 0.480212 0.000000
1.000000 0.476984 0.000000
1.000000 0.474291 0.000000
1.000000 0.472155 0.000000
1.000000 0.470553 0.000000
1.000000 0.469427 0.000000
1.000000 0.468695 0.000000
1.000000 0.468256 0.000000
1.000000 0.468001 0.000000
1.000000 0.467813 0.000000
1.000000 0.467577 0.000000
1.000000 0.467171 0.000000
0.000000 0.575230 0.000000
0.000000 0.575198 0.000000
0.000000 0.575162 0.000000
0.000000 0.575120 0.000000
0.000000 0.575071 0.000000
0.000000 0.575004 0.000000
0.000000 0.574905 0.000000
0.000000 0.574758 0.000000
0.000000 0.574540 0.000000
0.000000 0.574187 0.000000
0.000000 0.573624 0.000000
0.210742 0.572803 0.000000
0.341816 0.571709 0.000000
0.444101 0.570345 0.000000
0.534887 0.568689 0.000000
0.619123 0.566728 0.000000
0.698796 0.564454 0.000000
0.774793 0.561870 0.000000
0.847490 0.558986 0.000000
0.916741 0.555833 0.000000
0.975666 0.552817 0.000000
1.000000 0.550188 0.000000
1.000000 0.548002 0.000000
1.000000 0.546271 0.000000
1.000000 0.544975 0.000000
1.000000 0.544065 0.000000
1.000000 0.543474 0.000000
1.000000 0.543120 0.000000
1.000000 0.542914 0.000000
1.000000 0.542762 0.000000
1.000000 0.542571 0.000000
1.000000 0.542245 0.000000
0.000000 0.642454 0.000000
0.000000 0.642427 0.000000
0.000000 0.642396 0.000000
0.000000 0.642360 0.000000
0.000000 0.642319 0.000000
0.000000 0.642262 0.000000
0.000000 0.642178 0.000000
0.000000 0.642054 0.000000
0.000000 0.641870 0.000000
0.000000 0.641570 0.000000
0.000000 0.641091 0.000000
0.079604 0.640397 0.000000
0.288677 0.639470 0.000000
0.408887 0.638315 0.000000
0.508487 0.636916 0.000000
0.598077 0.635259 0.000000
0.681366 0.633341 0.000000
0.759964 0.631166 0.000000
0.834612 0.628741 0.000000
0.905367 0.626095 0.000000
0.965362 0.623568 0.000000
1.000000 0.621371 0.000000
1.000000 0.619545 0.000000
1.000000 0.618103 0.000000
1.000000 0.617024 0.000000
1.000000 0.616267 0.000000
1.000000 0.615775 0.000000
1.000000 0.615481 0.000000
1.000000 0.615309 0.000000
1.000000 0.615183 0.000000
1.000000 0.615025 0.000000
1.000000 0.614753 0.000000
0.000000 0.708758 0.000000
0.000000 0.708734 0.000000
0.000000 0.708708 0.000000
0.000000 0.708677 0.000000
0.000000 0.708641 0.000000
0.000000 0.708592 0.000000
0.000000 0.708520 0.000000
0.000000 0.708413 0.000000
0.000000 0.708254 0.000000
0.000000 0.707995 0.000000
0.000000 0.707583 0.000000
0.000000 0.706985 0.000000
0.205129 0.706186 0.000000
0.362186 0.705193 0.000000
0.475359 0.703988 0.000000
0.572370 0.702564 0.000000
0.660402 0.700918 0.000000
0.742303 0.699050 0.000000
0.819377 0.696973 0.000000
0.891975 0.694708 0.000000
0.953268 0.692549 0.000000
1.000000 0.690673 0.000000
1.000000 0.689117 0.000000
1.000000 0.687887 0.000000
1.000000 0.686968 0.000000
1.000000 0.686325 0.000000
1.000000 0.685906 0.000000
1.000000 0.685655 0.000000
1.000000 0.685510 0.000000
1.000000 0.685403 0.000000
1.000000 0.685268 0.000000
1.000000 0.685037 0.000000
0.000000 0.773814 0.000000
0.000000 0.773793 0.000000
0.000000 0.773770 0.000000
0.000000 0.773743 0.000000
0.000000 0.773712 0.000000
0.000000 0.773669 0.000000
0.000000 0.773606 0.000000
0.000000 0.773512 0.000000
0.000000 0.773373 0.000000
0.000000 0.773147 0.000000
0.000000 0.772786 0.000000
0.000000 0.772263 0.000000
0.000000 0.771566 0.000000
0.297000 0.770698 0.000000
0.433451 0.769646 0.000000
0.541121 0.768403 0.000000
0.635454 0.766967 0.000000
0.721553 0.765340 0.000000
0.801628 0.763531 0.000000
0.876463 0.761561 0.000000
0.939313 0.759684 0.000000
0.988806 0.758055 0.000000
1.000000 0.756705 0.000000
1.000000 0.755639 0.000000
1.000000 0.754843 0.000000
1.000000 0.754284 0.000000
1.000000 0.753923 0.000000
1.000000 0.753706 0.000000
1.000000 0.753580 0.000000
1.000000 0.753487 0.000000
1.000000 0.753370 0.000000
1.000000 0.753170 0.000000
0.000000 0.837293 0.000000
0.000000 0.837275 0.000000
0.000000 0.837254 0.000000
0.000000 0.837230 0.000000
0.000000 0.837203 0.000000
0.000000 0.837165 0.000000
0.000000 0.837108 0.000000
0.000000 0.837025 0.000000
0.000000 0.836903 0.000000
0.000000 0.836702 0.000000
0.000000 0.836383 0.000000
0.000000 0.835921 0.000000
0.000000 0.835303 0.000000
0.191119 0.834535 0.000000
0.379095 0.833604 0.000000
0.503080 0.832505 0.000000
0.605970 0.831236 0.000000
0.697442 0.829799 0.000000
0.781224 0.828201 0.000000
0.858757 0.826464 0.000000
0.923459 0.824810 0.000000
0.974201 0.823374 0.000000
1.000000 0.822185 0.000000
1.000000 0.821247 0.000000
1.000000 0.820546 0.000000
1.000000 0.820055 0.000000
1.000000 0.819737 0.000000
1.000000 0.819546 0.000000
1.000000 0.819435 0.000000
1.000000 0.819354 0.000000
1.000000 0.819252 0.000000
1.000000 0.819076 0.000000
0.000000 0.898643 0.000000
0.000000 0.898627 0.000000
0.000000 0.898608 0.000000
0.000000 0.898587 0.000000
0.000000 0.898562 0.000000
0.000000 0.898528 0.000000
0.000000 0.898478 0.000000
0.000000 0.898404 0.000000
0.000000 0.898293 0.000000
0.000000 0.898114 0.000000
0.000000 0.897828 0.000000
0.000000 0.897413 0.000000
0.000000 0.896861 0.000000
0.000000 0.896173 0.000000
0.304477 0.895339 0.000000
0.456467 0.894356 0.000000
0.571374 0.893220 0.000000
0.669780 0.891935 0.000000
0.758126 0.890508 0.000000
0.838892 0.888955 0.000000
0.905769 0.887477 0.000000
0.957962 0.886196 0.000000
0.997958 0.885136 0.000000
1.000000 0.884299 0.000000
1.000000 0.883674 0.000000
1.000000 0.883237 0.000000
1.000000 0.882953 0.000000
1.000000 0.882783 0.000000
1.000000 0.882684 0.000000
1.000000 0.882611 0.000000
1.000000 0.882520 0.000000
1.000000 0.882363 0.000000
0.000000 0.951383 0.000000
0.000000 0.951368 0.000000
0.000000 0.951351 0.000000
0.000000 0.951332 0.000000
0.000000 0.951309 0.000000
0.000000 0.951278 0.000000
0.000000 0.951232 0.000000
0.000000 0.951164 0.000000
0.000000 0.951063 0.000000
0.000000 0.950899 0.000000
0.000000 0.950638 0.000000
0.000000 0.950258 0.000000
0.000000 0.949753 0.000000
0.000000 0.949124 0.000000
0.199752 0.948362 0.000000
0.404899 0.947463 0.000000
0.535408 0.946426 0.000000
0.641829 0.945252 0.000000
0.735161 0.943948 0.000000
0.819339 0.942530 0.000000
0.888466 0.941181 0.000000
0.942141 0.940013 0.000000
0.983139 0.939046 0.000000
1.000000 0.938283 0.000000
1.000000 0.937713 0.000000
1.000000 0.937314 0.000000
1.000000 0.937055 0.000000
1.000000 0.936901 0.000000
1.000000 0.936810 0.000000
1.000000 0.936744 0.000000
1.000000 0.936661 0.000000
1.000000 0.936518 0.000000
0.000000 0.993562 0.000000
0.000000 0.993548 0.000000
0.000000 0.993532 0.000000
0.000000 0.993514 0.000000
0.000000 0.993493 0.000000
0.000000 0.993464 0.000000
0.000000 0.993421 0.000000
0.000000 0.993358 0.000000
0.000000 0.993263 0.000000
0.000000 0.993110 0.000000
0.000000 0.992866 0.000000
0.000000 0.992511 0.000000
0.000000 0.992039 0.000000
0.000000 0.991451 0.000000
0.000000 0.990740 0.000000
0.351471 0.989901 0.000000
0.501178 0.988933 0.000000
0.616093 0.987837 0.000000
0.714380 0.986620 0.000000
0.801830 0.985298 0.000000
0.873068 0.984040 0.000000
0.928114 0.982950 0.000000
0.970033 0.982048 0.000000
1.000000 0.981337 0.000000
1.000000 0.980806 0.000000
1.000000 0.980435 0.000000
1.000000 0.980193 0.000000
1.000000 0.980049 0.000000
1.000000 0.979964 0.000000
1.000000 0.979903 0.000000
1.000000 0.979826 0.000000
1.000000 0.979692 0.000000
0.000000 1.000000 0.000000
0.000000 1.000000 0.000000
0.000000 1.000000 0.000000
0.000000 1.000000 0.000000
0.000000 1.000000 0.000000
0.000000 1.000000 0.000000
0.000000 1.000000 0.000000
0.000000 1.000000 0.000000
0.000000 1.000000 0.000000
0.000000 1.000000 0.000000
0.000000 1.000000 0.000000
0.000000 1.000000 0.000000
0.000000 1.000000 0.000000
0.000000 1.000000 0.000000
0.000000 1.000000 0.000000
0.297141 1.000000 0.000000
0.470099 1.000000 0.000000
0.593546 1.000000 0.000000
0.696485 1.000000 0.000000
0.786902 1.000000 0.000000
0.860017 1.000000 0.000000
0.916267 1.000000 0.000000
0.958990 1.000000 0.000000
0.990644 1.000000 0.000000
1.000000 1.000000 0.000000
1.000000 1.000000 0.000000
1.000000 1.000000 0.000000
1.000000 1.000000 0.000000
1.000000 1.000000 0.000000
1.000000 1.000000 0.000000
1.000000 1.000000 0.000000
1.000000 1.000000 0.000000
0.000000 1.000000 0.000000
0.000000 1.000000 0.000000
0.000000 1.000000 0.000000
0.000000 1.000000 0.000000
0.000000 1.000000 0.000000
0.000000 1.000000 0.000000
0.000000 1.000000 0.000000
0.000000 1.000000 0.000000
0.000000 1.000000 0.000000
0.000000 1.000000 0.000000
0.000000 1.000000 0.000000
0.000000 1.000000 0.000000
0.000000 1.000000 0.000000
0.000000 1.000000 0.000000
0.000000 1.000000 0.000000
0.242877 1.000000 0.000000
0.443381 1.000000 0.000000
0.574854 1.000000 0.000000
0.681886 1.000000 0.000000
0.774834 1.000000 0.000000
0.849518 1.000000 0.000000
0.906767 1.000000 0.000000
0.950151 1.000000 0.000000
0.982249 1.000000 0.000000
1.000000 1.000000 0.000000
1.000000 1.000000 0.000000
1.000000 1.000000 0.000000
1.000000 1.000000 0.000000
1.000000 1.000000 0.000000
1.000000 1.000000 0.000000
1.000000 1.000000 0.000000
1.000000 1.000000 0.000000
0.000000 1.000000 0.000000
0.000000 1.000000 0.000000
0.000000 1.000000 0.000000
0.000000 1.000000 0.000000
0.000000 1.000000 0.000000
0.000000 1.000000 0.000000
0.000000 1.000000 0.000000
0.000000 1.000000 0.000000
0.000000 1.000000 0.000000
0.000000 1.000000 0.000000
0.000000 1.000000 0.000000
0.000000 1.000000 0.000000
0.000000 1.000000 0.000000
0.000000 1.000000 0.000000
0.000000 1.000000 0.000000
0.189729 1.000000 0.000000
0.421862 1.000000 0.000000
0.560307 1.000000 0.000000
0.670685 1.000000 0.000000
0.765642 1.000000 0.000000
0.841556 1.000000 0.000000
0.899580 1.000000 0.000000
0.943474 1.000000 0.000000
0.975915 1.000000 0.000000
0.999049 1.000000 0.000000
1.000000 1.000000 0.000000
1.000000 1.000000 0.000000
1.000000 1.000000 0.000000
1.000000 1.000000 0.000000
1.000000 1.000000 0.000000
1.000000 1.000000 0.000000
1.000000 1.000000 0.000000
0.000000 1.000000 0.000000
0.000000 1.000000 0.000000
0.000000 1.000000 0.000000
0.000000 1.000000 0.000000
0.000000 1.000000 0.000000
0.000000 1.000000 0.000000
0.000000 1.000000 0.000000
0.000000 1.000000 0.000000
0.000000 1.000000 0.000000
0.000000 1.000000 0.000000
0.000000 1.000000 0.000000
0.000000 1.000000 0.000000
0.000000 1.000000 0.000000
0.000000 1.000000 0.000000
0.000000 1.000000 0.000000
0.138894 1.000000 0.000000
0.405838 1.000000 0.000000
0.549788 1.000000 0.000000
0.662676 1.000000 0.000000
0.759108 1.000000 0.000000
0.835915 1.000000 0.000000
0.894498 1.000000 0.000000
0.938758 1.000000 0.000000
0.971443 1.000000 0.000000
0.994740 1.000000 0.000000
1.000000 1.000000 0.000000
1.000000 1.000000 0.000000
1.000000 1.000000 0.000000
1.000000 1.000000 0.000000
1.000000 1.000000 0.000000
1.000000 1.000000 0.000000
1.000000 1.000000 0.000000
0.000000 1.000000 0.000000
0.000000 1.000000 0.000000
0.000000 1.000000 0.000000
0.000000 1.000000 0.000000
0.000000 1.000000 0.000000
0.000000 1.000000 0.000000
0.000000 1.000000 0.000000
0.000000 1.000000 0.000000
0.000000 1.000000 0.000000
0.000000 1.000000 0.000000
0.000000 1.000000 0.000000
0.000000 1.000000 0.000000
0.000000 1.000000 0.000000
0.000000 1.000000 0.000000
0.000000 1.000000 0.000000
0.091749 1.000000 0.000000
0.394954 1.000000 0.000000
0.542804 1.000000 0.000000
0.657402 1.000000 0.000000
0.754824 1.000000 0.000000
0.832225 1.000000 0.000000
0.891177 1.000000 0.000000
0.935679 1.000000 0.000000
0.968526 1.000000 0.000000
0.991930 1.000000 0.000000
1.000000 1.000000 0.000000
1.000000 1.000000 0.000000
1.000000 1.000000 0.000000
1.000000 1.000000 0.000000
1.000000 1.000000 0.000000
1.000000 1.000000 0.000000
1.000000 1.000000 0.000000
0.000000 1.000000 0.000000
0.000000 1.000000 0.000000
0.000000 1.000000 0.000000
0.000000 1.000000 0.000000
0.000000 1.000000 0.000000
0.000000 1.000000 0.000000
0.000000 1.000000 0.000000
0.000000 1.000000 0.000000
0.000000 1.000000 0.000000
0.000000 1.000000 0.000000
0.000000 1.000000 0.000000
0.000000 1.000000 0.000000
0.000000 1.000000 0.000000
0.000000 1.000000 0.000000
0.000000 1.000000 0.000000
0.049607 1.000000 0.000000
0.388239 1.000000 0.000000
0.538562 1.000000 0.000000
0.654216 1.000000 0.000000
0.752243 1.000000 0.000000
