nuke/views/this_is_cube.cube
# Alexa conversion LUT, logc2video, itu709. Full in/full out.
# created by alexalutconv (2.09)
LUT_3D_SIZE 8
DOMAIN_MIN 0.000000 0.000000 0.000000
DOMAIN_MAX 0.903226 0.903226 0.903226
0.000000 0.000000 0.000000
0.084926 0.000000 0.000652
0.214489 0.000000 0.002820
0.468906 0.000000 0.014350
0.753201 0.000000 0.043509
1.000000 0.000000 0.084462
1.000000 0.000000 0.104824
1.000000 0.000000 0.109560
0.000000 0.075416 0.000000
0.065069 0.073739 0.000000
0.207209 0.067937 0.000000
0.466349 0.032629 0.006975
0.751938 0.000000 0.036133
1.000000 0.000000 0.078800
1.000000 0.000000 0.100144
1.000000 0.000000 0.105070
0.000000 0.198205 0.000000
0.000000 0.197546 0.000000
0.180490 0.195333 0.000000
0.457689 0.183048 0.000000
0.747708 0.146893 0.011577
1.000000 0.056686 0.057206
1.000000 0.000000 0.082983
1.000000 0.000000 0.088713
0.000000 0.439323 0.000000
0.000000 0.439089 0.000000
0.000000 0.438305 0.000000
0.407137 0.434105 0.000000
0.724574 0.423219 0.000000
0.991305 0.405349 0.000000
1.000000 0.392989 0.000000
1.000000 0.389695 0.000000
0.000000 0.708758 0.000000
0.000000 0.708641 0.000000
0.000000 0.708254 0.000000
0.205129 0.706186 0.000000
0.660402 0.700918 0.000000
0.953268 0.692549 0.000000
1.000000 0.686968 0.000000
1.000000 0.685510 0.000000
0.000000 0.951383 0.000000
0.000000 0.951309 0.000000
0.000000 0.951063 0.000000
0.000000 0.949753 0.000000
0.535408 0.946426 0.000000
0.888466 0.941181 0.000000
1.000000 0.937713 0.000000
1.000000 0.936810 0.000000
0.000000 1.000000 0.000000
0.000000 1.000000 0.000000
0.000000 1.000000 0.000000
0.000000 1.000000 0.000000
0.421862 1.000000 0.000000
0.841556 1.000000 0.000000
0.999049 1.000000 0.000000
1.000000 1.000000 0.000000
0.000000 1.000000 0.000000
0.000000 1.000000 0.000000
0.000000 1.000000 0.000000
0.000000 1.000000 0.000000
0.384258 1.000000 0.000000
0.828709 1.000000 0.000000
0.989258 1.000000 0.000000
1.000000 1.000000 0.000000
0.000000 0.000000 0.066563
0.081090 0.000000 0.067144
0.212992 0.000000 0.069050
0.468374 0.000000 0.078608
0.752938 0.000000 0.099460
1.000000 0.000000 0.125995
1.000000 0.000000 0.140820
1.000000 0.000000 0.144413
0.000000 0.062281 0.059729
0.060354 0.060354 0.060354
0.205650 0.053661 0.062402
0.465813 0.017568 0.072602
0.751674 0.000000 0.094551
1.000000 0.000000 0.122074
1.000000 0.000000 0.137319
1.000000 0.000000 0.141005
0.000000 0.193275 0.035242
0.000000 0.192596 0.035893
0.178660 0.190317 0.038062
0.457137 0.177636 0.049592
0.747441 0.139969 0.076392
1.000000 0.041626 0.108059
1.000000 0.000000 0.124962
1.000000 0.000000 0.129000
0.000000 0.437584 0.000000
0.000000 0.437347 0.000000
0.000000 0.436559 0.000000
0.406487 0.432335 0.000000
0.724295 0.421385 0.000000
0.991132 0.403400 0.000000
1.000000 0.390954 0.023795
1.000000 0.387636 0.031567
0.000000 0.707897 0.000000
0.000000 0.707781 0.000000
0.000000 0.707392 0.000000
0.203551 0.705321 0.000000
0.660080 0.700043 0.000000
0.953085 0.691657 0.000000
1.000000 0.686066 0.000000
1.000000 0.684604 0.000000
0.000000 0.950837 0.000000
0.000000 0.950763 0.000000
0.000000 0.950516 0.000000
0.000000 0.949205 0.000000
0.534968 0.945875 0.000000
0.888262 0.940626 0.000000
1.000000 0.937154 0.000000
1.000000 0.936251 0.000000
0.000000 1.000000 0.000000
0.000000 1.000000 0.000000
0.000000 1.000000 0.000000
0.000000 1.000000 0.000000
0.421244 1.000000 0.000000
0.841334 1.000000 0.000000
0.998879 1.000000 0.000000
1.000000 1.000000 0.000000
0.000000 1.000000 0.000000
0.000000 1.000000 0.000000
0.000000 1.000000 0.000000
0.000000 1.000000 0.000000
0.383554 1.000000 0.000000
0.828481 1.000000 0.000000
0.989086 1.000000 0.000000
1.000000 1.000000 0.000000
0.000000 0.000000 0.183048
0.067157 0.000000 0.183278
0.207920 0.000000 0.184042
0.466595 0.000000 0.188042
0.752060 0.000000 0.197750
1.000000 0.000000 0.211920
1.000000 0.000000 0.220647
1.000000 0.000000 0.222844
0.000000 0.012346 0.180420
0.043587 0.010307 0.180654
0.200358 0.003518 0.181430
0.464020 0.000000 0.185494
0.750793 0.000000 0.195347
1.000000 0.000000 0.209705
1.000000 0.000000 0.218537
1.000000 0.000000 0.220759
0.000000 0.175716 0.171347
0.000000 0.174959 0.171594
0.172415 0.172415 0.172415
0.455297 0.158135 0.176712
0.746552 0.113930 0.187089
1.000000 0.000000 0.202127
1.000000 0.000000 0.211332
1.000000 0.000000 0.213644
0.000000 0.431719 0.110417
0.000000 0.431478 0.110802
0.000000 0.430675 0.112078
0.404313 0.426369 0.118644
0.723363 0.415195 0.133874
0.990559 0.396815 0.154717
1.000000 0.384071 0.166929
1.000000 0.380670 0.169942
0.000000 0.705021 0.000000
0.000000 0.704903 0.000000
0.000000 0.704512 0.000000
0.198194 0.702428 0.000000
0.659007 0.697116 0.000000
0.952475 0.688677 0.000000
1.000000 0.683049 0.000000
1.000000 0.681578 0.000000
0.000000 0.949015 0.000000
0.000000 0.948941 0.000000
0.000000 0.948693 0.000000
0.000000 0.947378 0.000000
0.533502 0.944038 0.000000
0.887581 0.938773 0.000000
1.000000 0.935290 0.000000
1.000000 0.934384 0.000000
0.000000 1.000000 0.000000
0.000000 1.000000 0.000000
0.000000 1.000000 0.000000
0.000000 1.000000 0.000000
0.419176 1.000000 0.000000
0.840594 1.000000 0.000000
0.998313 1.000000 0.000000
1.000000 1.000000 0.000000
0.000000 1.000000 0.000000
0.000000 1.000000 0.000000
0.000000 1.000000 0.000000
0.000000 1.000000 0.000000
0.381196 1.000000 0.000000
0.827723 1.000000 0.000000
0.988510 1.000000 0.000000
1.000000 1.000000 0.000000
0.000000 0.000000 0.411786
0.000000 0.000000 0.411868
0.178108 0.000000 0.412142
0.456973 0.000000 0.413591
0.747361 0.000000 0.417225
1.000000 0.000000 0.422826
1.000000 0.000000 0.426448
1.000000 0.000000 0.427380
0.000000 0.000000 0.410854
0.000000 0.000000 0.410937
0.169012 0.000000 0.411211
0.454319 0.000000 0.412665
0.746082 0.000000 0.416310
1.000000 0.000000 0.421928
1.000000 0.000000 0.425560
1.000000 0.000000 0.426495
0.000000 0.003935 0.407729
0.000000 0.001895 0.407813
0.133980 0.000000 0.408090
0.445323 0.000000 0.409560
0.741800 0.000000 0.413243
1.000000 0.000000 0.418918
1.000000 0.000000 0.422587
1.000000 0.000000 0.423531
0.000000 0.398464 0.390526
0.000000 0.398195 0.390615
0.000000 0.397296 0.390909
0.392468 0.392468 0.392468
0.718375 0.379879 0.396374
0.987501 0.358941 0.402383
1.000000 0.344235 0.406261
1.000000 0.340280 0.407259
0.000000 0.689419 0.341546
0.000000 0.689298 0.341651
0.000000 0.688893 0.342004
0.166383 0.686737 0.343874
0.653257 0.681238 0.348542
0.949222 0.672495 0.355682
1.000000 0.666660 0.360267
1.000000 0.665133 0.361443
0.000000 0.939234 0.237113
0.000000 0.939158 0.237282
0.000000 0.938907 0.237846
0.000000 0.937570 0.240817
0.525603 0.934175 0.248136
0.883947 0.928822 0.259080
1.000000 0.925281 0.265963
1.000000 0.924359 0.267711
0.000000 1.000000 0.112065
0.000000 1.000000 0.112446
0.000000 1.000000 0.113704
0.000000 1.000000 0.120187
0.407931 1.000000 0.135247
0.836638 1.000000 0.155901
0.995291 1.000000 0.168021
1.000000 1.000000 0.171013
0.000000 1.000000 0.043119
0.000000 1.000000 0.043770
0.000000 1.000000 0.045939
0.000000 1.000000 0.057461
0.368310 1.000000 0.082565
0.823672 1.000000 0.112731
0.985442 1.000000 0.129054
1.000000 1.000000 0.132969
0.000000 0.000000 0.667386
0.000000 0.000000 0.667427
0.050313 0.000000 0.667563
0.431253 0.000000 0.668282
0.735272 0.000000 0.670098
0.997931 0.000000 0.672925
1.000000 0.000000 0.674771
1.000000 0.000000 0.675249
0.000000 0.000000 0.666925
0.000000 0.000000 0.666966
0.026060 0.000000 0.667101
0.428371 0.000000 0.667822
0.733962 0.000000 0.669640
0.997115 0.000000 0.672469
1.000000 0.000000 0.674317
1.000000 0.000000 0.674796
0.000000 0.000000 0.665385
0.000000 0.000000 0.665427
0.000000 0.000000 0.665563
0.418575 0.000000 0.666286
0.729571 0.000000 0.668109
0.994389 0.000000 0.670949
1.000000 0.000000 0.672803
1.000000 0.000000 0.673283
0.000000 0.290060 0.657109
0.000000 0.289647 0.657150
0.000000 0.288267 0.657289
0.360066 0.280786 0.658026
0.705519 0.260624 0.659884
0.979699 0.224434 0.662777
1.000000 0.196206 0.664666
1.000000 0.188069 0.665155
0.000000 0.647372 0.635446
0.000000 0.647238 0.635490
0.000000 0.646793 0.635636
0.019310 0.644422 0.636411
0.638364 0.638364 0.638364
0.940916 0.628708 0.641404
1.000000 0.622244 0.643387
1.000000 0.620551 0.643900
0.000000 0.913759 0.599139
0.000000 0.913681 0.599187
0.000000 0.913418 0.599346
0.000000 0.912022 0.600191
0.504815 0.908477 0.602322
0.874654 0.902885 0.605635
1.000000 0.899183 0.607796
1.000000 0.898219 0.608355
0.000000 1.000000 0.573396
0.000000 1.000000 0.573447
0.000000 1.000000 0.573618
0.000000 1.000000 0.574520
0.377376 1.000000 0.576793
0.826505 1.000000 0.580324
0.987587 1.000000 0.582624
1.000000 1.000000 0.583219
0.000000 1.000000 0.566435
0.000000 1.000000 0.566487
0.000000 1.000000 0.566660
0.000000 1.000000 0.567579
0.332621 1.000000 0.569892
0.813287 1.000000 0.573486
0.977615 1.000000 0.575828
1.000000 1.000000 0.576433
0.000000 0.000000 0.897554
0.000000 0.000000 0.897580
0.000000 0.000000 0.897665
0.386019 0.000000 0.898124
0.715723 0.000000 0.899279
0.985882 0.000000 0.901082
1.000000 0.000000 0.902264
1.000000 0.000000 0.902570
0.000000 0.000000 0.897261
0.000000 0.000000 0.897287
0.000000 0.000000 0.897373
0.382652 0.000000 0.897831
0.714357 0.000000 0.898987
0.985050 0.000000 0.900792
1.000000 0.000000 0.901973
1.000000 0.000000 0.902279
0.000000 0.000000 0.896285
0.000000 0.000000 0.896311
0.000000 0.000000 0.896397
0.371136 0.000000 0.896855
0.709780 0.000000 0.898013
0.982272 0.000000 0.899821
1.000000 0.000000 0.901005
1.000000 0.000000 0.901311
0.000000 0.000000 0.891066
0.000000 0.000000 0.891092
0.000000 0.000000 0.891180
0.299505 0.000000 0.891642
0.684657 0.000000 0.892810
0.967291 0.000000 0.894635
1.000000 0.000000 0.895829
1.000000 0.000000 0.896138
0.000000 0.571875 0.877652
0.000000 0.571714 0.877679
0.000000 0.571179 0.877768
0.000000 0.568323 0.878242
0.613955 0.561003 0.879438
0.927683 0.549258 0.881305
1.000000 0.541340 0.882528
1.000000 0.539259 0.882845
0.000000 0.871513 0.855996
0.000000 0.871428 0.856024
0.000000 0.871145 0.856116
0.000000 0.869642 0.856609
0.469546 0.865823 0.857853
0.859792 0.859792 0.859792
1.000000 0.855796 0.861063
1.000000 0.854755 0.861392
0.000000 1.000000 0.841300
0.000000 1.000000 0.841328
0.000000 1.000000 0.841424
0.000000 1.000000 0.841929
0.321306 0.999163 0.843206
0.810250 0.994349 0.845199
0.975336 0.991168 0.846503
1.000000 0.990340 0.846842
0.000000 1.000000 0.837422
0.000000 1.000000 0.837452
0.000000 1.000000 0.837547
0.000000 1.000000 0.838057
0.263459 1.000000 0.839343
0.796612 1.000000 0.841349
0.965164 1.000000 0.842664
1.000000 1.000000 0.843004
0.000000 0.000000 1.000000
0.000000 0.000000 1.000000
0.000000 0.000000 1.000000
0.351807 0.000000 1.000000
0.702430 0.000000 1.000000
0.977842 0.000000 1.000000
1.000000 0.000000 1.000000
1.000000 0.000000 1.000000
0.000000 0.000000 1.000000
0.000000 0.000000 1.000000
0.000000 0.000000 1.000000
0.347980 0.000000 1.000000
0.701025 0.000000 1.000000
0.976999 0.000000 1.000000
1.000000 0.000000 1.000000
1.000000 0.000000 1.000000
0.000000 0.000000 1.000000
0.000000 0.000000 1.000000
0.000000 0.000000 1.000000
0.334809 0.000000 1.000000
0.696314 0.000000 1.000000
0.974185 0.000000 1.000000
1.000000 0.000000 1.000000
1.000000 0.000000 1.000000
0.000000 0.000000 1.000000
0.000000 0.000000 1.000000
0.000000 0.000000 1.000000
0.248909 0.000000 1.000000
0.670417 0.000000 1.000000
0.959004 0.000000 1.000000
1.000000 0.000000 1.000000
1.000000 0.000000 1.000000
0.000000 0.512960 0.992663
0.000000 0.512772 0.992686
0.000000 0.512145 0.992759
0.000000 0.508791 0.993150
0.597104 0.500162 0.994137
0.918830 0.486210 0.995680
1.000000 0.476726 0.996691
1.000000 0.474221 0.996952
0.000000 0.841941 0.974890
0.000000 0.841852 0.974912
0.000000 0.841554 0.974988
0.000000 0.839968 0.975390
0.444153 0.835937 0.976406
0.849812 0.829566 0.977992
1.000000 0.825341 0.979032
1.000000 0.824240 0.979301
0.000000 0.980193 0.962935
0.000000 0.980122 0.962959
0.000000 0.979887 0.963035
0.000000 0.978636 0.963445
0.275964 0.975463 0.964481
0.799295 0.970463 0.966098
0.967158 0.967158 0.967158
1.000000 0.966298 0.967432
0.000000 1.000000 0.959797
0.000000 1.000000 0.959820
0.000000 1.000000 0.959897
0.000000 1.000000 0.960309
0.201337 1.000000 0.961350
0.785363 1.000000 0.962976
0.956848 0.999018 0.964041
0.994179 0.998201 0.964316
0.000000 0.000000 1.000000
0.000000 0.000000 1.000000
0.000000 0.000000 1.000000
0.342163 0.000000 1.000000
0.698920 0.000000 1.000000
0.975740 0.000000 1.000000
1.000000 0.000000 1.000000
1.000000 0.000000 1.000000
0.000000 0.000000 1.000000
0.000000 0.000000 1.000000
0.000000 0.000000 1.000000
0.338188 0.000000 1.000000
0.697504 0.000000 1.000000
0.974894 0.000000 1.000000
1.000000 0.000000 1.000000
1.000000 0.000000 1.000000
0.000000 0.000000 1.000000
0.000000 0.000000 1.000000
0.000000 0.000000 1.000000
0.324479 0.000000 1.000000
0.692756 0.000000 1.000000
0.972071 0.000000 1.000000
1.000000 0.000000 1.000000
1.000000 0.000000 1.000000
0.000000 0.000000 1.000000
0.000000 0.000000 1.000000
0.000000 0.000000 1.000000
0.233488 0.000000 1.000000
0.666649 0.000000 1.000000
0.956837 0.000000 1.000000
1.000000 0.000000 1.000000
1.000000 0.000000 1.000000
0.000000 0.495974 1.000000
0.000000 0.495776 1.000000
0.000000 0.495117 1.000000
0.000000 0.491594 1.000000
0.592617 0.482516 1.000000
0.916512 0.467797 1.000000
1.000000 0.457759 1.000000
1.000000 0.455105 1.000000
0.000000 0.834004 1.000000
0.000000 0.833914 1.000000
0.000000 0.833612 1.000000
0.000000 0.832002 1.000000
0.437221 0.827911 1.000000
0.847195 0.821444 1.000000
1.000000 0.817153 1.000000
1.000000 0.816035 1.000000
0.000000 0.973945 0.990809
0.000000 0.973874 0.990831
0.000000 0.973636 0.990905
0.000000 0.972373 0.991297
0.262523 0.969167 0.992287
0.796417 0.964116 0.993834
0.965019 0.960776 0.994848
1.000000 0.959907 0.995110
0.000000 1.000000 0.987809
0.000000 1.000000 0.987831
0.000000 1.000000 0.987905
0.000000 1.000000 0.988299
0.181014 1.000000 0.989293
0.782405 0.996128 0.990848
0.954674 0.992955 0.991866
0.992130 0.992130 0.992130
