nuke/views/this_is_cube.cube
# Alexa conversion LUT, logc2video, itu709. Full in/full out.
# created by alexalutconv (2.09)
LUT_3D_SIZE 5
DOMAIN_MIN 0.000000 0.000000 0.000000
DOMAIN_MAX 0.903226 0.903226 0.903226
0.000000 0.000000 0.000000
0.174073 0.000000 0.001931
0.612309 0.000000 0.026556
1.000000 0.000000 0.091761
1.000000 0.000000 0.109560
0.000000 0.159903 0.000000
0.144485 0.157403 0.000000
0.607163 0.120894 0.004690
1.000000 0.000000 0.075289
1.000000 0.000000 0.095709
0.000000 0.575230 0.000000
0.000000 0.574758 0.000000
0.534887 0.568689 0.000000
1.000000 0.550188 0.000000
1.000000 0.542914 0.000000
0.000000 0.993562 0.000000
0.000000 0.993358 0.000000
0.000000 0.990740 0.000000
0.928114 0.982950 0.000000
1.000000 0.979964 0.000000
0.000000 1.000000 0.000000
0.000000 1.000000 0.000000
0.000000 1.000000 0.000000
0.888017 1.000000 0.000000
1.000000 1.000000 0.000000
0.000000 0.000000 0.146712
0.168356 0.000000 0.147577
0.611240 0.000000 0.158169
1.000000 0.000000 0.185705
1.000000 0.000000 0.195041
0.000000 0.140331 0.136529
0.137459 0.137459 0.137459
0.606080 0.093738 0.148804
1.000000 0.000000 0.177919
1.000000 0.000000 0.187695
0.000000 0.571730 0.000000
0.000000 0.571254 0.000000
0.533582 0.565130 0.000000
1.000000 0.546450 0.000000
1.000000 0.539102 0.025323
0.000000 0.992048 0.000000
0.000000 0.991842 0.000000
0.000000 0.989219 0.000000
0.927549 0.981411 0.000000
1.000000 0.978417 0.000000
0.000000 1.000000 0.000000
0.000000 1.000000 0.000000
0.000000 1.000000 0.000000
0.887410 1.000000 0.000000
1.000000 1.000000 0.000000
0.000000 0.000000 0.540715
0.059560 0.000000 0.540879
0.597351 0.000000 0.542977
1.000000 0.000000 0.549102
1.000000 0.000000 0.551402
0.000000 0.000000 0.538841
0.000000 0.000000 0.539007
0.592010 0.000000 0.541115
1.000000 0.000000 0.547270
1.000000 0.000000 0.549582
0.000000 0.524016 0.514067
0.000000 0.523475 0.514245
0.516502 0.516502 0.516502
1.000000 0.495070 0.523083
1.000000 0.486565 0.525552
0.000000 0.972415 0.428318
0.000000 0.972203 0.428549
0.000000 0.969496 0.431473
0.920281 0.961434 0.439947
1.000000 0.958342 0.443107
0.000000 1.000000 0.388404
0.000000 1.000000 0.388668
0.000000 1.000000 0.392014
0.879620 1.000000 0.401671
1.000000 1.000000 0.405257
0.000000 0.000000 0.937567
0.000000 0.000000 0.937639
0.553257 0.000000 0.938552
1.000000 0.000000 0.941237
1.000000 0.000000 0.942256
0.000000 0.000000 0.936756
0.000000 0.000000 0.936828
0.547269 0.000000 0.937741
1.000000 0.000000 0.940431
1.000000 0.000000 0.941450
0.000000 0.321053 0.926309
0.000000 0.319980 0.926381
0.460552 0.305863 0.927312
0.996981 0.258186 0.930049
1.000000 0.236813 0.931085
0.000000 0.910477 0.894337
0.000000 0.910243 0.894414
0.000000 0.907241 0.895397
0.898286 0.898286 0.898286
1.000000 0.894848 0.899381
0.000000 1.000000 0.881711
0.000000 1.000000 0.881789
0.000000 1.000000 0.882794
0.855968 1.000000 0.885748
0.999379 1.000000 0.886867
0.000000 0.000000 1.000000
0.000000 0.000000 1.000000
0.535072 0.000000 1.000000
1.000000 0.000000 1.000000
1.000000 0.000000 1.000000
0.000000 0.000000 1.000000
0.000000 0.000000 1.000000
0.528780 0.000000 1.000000
1.000000 0.000000 1.000000
1.000000 0.000000 1.000000
0.000000 0.159033 1.000000
0.000000 0.156519 1.000000
0.436525 0.119736 1.000000
0.989703 0.000000 1.000000
1.000000 0.000000 1.000000
0.000000 0.885132 0.998409
0.000000 0.884886 0.998475
0.000000 0.881749 0.999301
0.889706 0.872383 1.000000
1.000000 0.868783 1.000000
0.000000 1.000000 0.987809
0.000000 1.000000 0.987875
0.000000 1.000000 0.988715
0.846710 0.995058 0.991192
0.992130 0.992130 0.992130
